src/assets/img/shieldlock.svg

<svg xmlns="http://www.w3.org/2000/svg" xmlns:xlink="http://www.w3.org/1999/xlink" height="128.0000000000001" width="188">
  <defs>
    <rect id="rect-1" opacity="1" x="0" y="0" width="188" height="128"/>
    <mask id="mask-2" maskUnits="userSpaceOnUse" maskContentUnits="userSpaceOnUse">
      <rect opacity="1" x="0" y="0" width="188" height="128.0000000000001" fill="Black"/>
      <use xlink:href="#rect-1" fill="White"/>
    </mask>
    <path id="path-3" opacity="1" fill-rule="evenodd" d="M49.88905547226386 28.874477819773332L49.88905547226386 57.698030634573385C49.88905547226386 80.66520787746177 61.47090091317979 92.14879649890597 80.71418836036534 104.85458523970563L98.0613329698788 116.28724885617666C98.8300395256918 116.79649890590811 99.85498160010914 116.79649890590811 100.62368815592215 116.28724885617666L117.84271500613345 104.88004774219219C137.00913179773772 92.17425900139253 148.53973013493277 80.7161328824349 148.53973013493277 57.825343147006244L148.53973013493277 28.874477819773332C148.53973013493277 20.52277700417756 141.72386534005744 13.749751342749278 133.31934032983528 13.749751342749278L65.10944527736135 13.749751342749278C56.70492026713917 13.749751342749278 49.88905547226386 20.52277700417756 49.88905547226386 28.874477819773332L49.88905547226386 28.874477819773332Z"/>
    <filter id="filter-4" filterUnits="userSpaceOnUse" x="-50%" y="-50%" width="200%" height="200%">
      <feOffset in="SourceAlpha" result="shadow-1-feOffset-shadow" dx="2" dy="2"/>
      <feGaussianBlur in="shadow-1-feOffset-shadow" result="shadow-1-feGaussianBlur-shadow" stdDeviation="2"/>
      <feColorMatrix in="shadow-1-feGaussianBlur-shadow" result="shadow-1-feColorMatrix-shadow" type="matrix" values="0 0 0 0 0.8705882352941177  0 0 0 0 0.8745098039215686  0 0 0 0 0.9176470588235294  0 0 0 0.5 0"/>
    </filter>
    <path id="path-6" opacity="1" fill-rule="evenodd" d="M106.286493117078 72.05888203700036L91.96292762709558 72.05888203700036C91.24546817500344 72.05888203700036 90.63050293035303 71.4732444798092 90.63050293035303 70.73483190769859L90.63050293035303 57.90173065446605C90.63050293035303 57.188780584842014 91.219844623143 56.57768052516428 91.96292762709558 56.57768052516428L106.286493117078 56.57768052516428C107.00395256917014 56.57768052516428 107.61891781382054 57.16331808235545 107.61891781382054 57.90173065446605L107.61891781382054 70.73483190769859C107.59329426196011 71.4732444798092 107.00395256917014 72.05888203700036 106.286493117078 72.05888203700036L106.286493117078 72.05888203700036Z"/>
    <filter id="filter-7" filterUnits="userSpaceOnUse" x="-50%" y="-50%" width="200%" height="200%">
      <feOffset in="SourceAlpha" result="shadow-1-feOffset-shadow" dx="0" dy="2"/>
      <feGaussianBlur in="shadow-1-feOffset-shadow" result="shadow-1-feGaussianBlur-shadow" stdDeviation="2"/>
      <feColorMatrix in="shadow-1-feGaussianBlur-shadow" result="shadow-1-feColorMatrix-shadow" type="matrix" values="0 0 0 0 0.4470588235294118  0 0 0 0 0.5529411764705883  0 0 0 0 1  0 0 0 0.5 0"/>
    </filter>
    <path id="path-15" opacity="1" fill-rule="evenodd" d="M8 62C8 60.89543050033841 8.895430500338414 60 10 60L14 60C15.104569499661586 60 16 60.89543050033841 16 62L16 66C16 67.10456949966158 15.104569499661586 68 14 68L10 68C8.895430500338414 68 8 67.10456949966158 8 66L8 62Z"/>
    <mask id="mask-16" maskUnits="userSpaceOnUse" maskContentUnits="userSpaceOnUse" x="0" y="0">
      <rect opacity="1" x="0" y="0" width="188" height="128.0000000000001" fill="black"/>
      <use xlink:href="#path-15" fill="white"/>
    </mask>
    <path id="path-17" opacity="1" fill-rule="evenodd" d="M169.65685424949243 81.65685424949237C169.65685424949243 80.55228474983079 170.55228474983085 79.65685424949237 171.65685424949243 79.65685424949237L175.65685424949243 79.65685424949237C176.761423749154 79.65685424949237 177.65685424949243 80.55228474983079 177.65685424949243 81.65685424949237L177.65685424949243 85.65685424949237C177.65685424949243 86.76142374915395 176.761423749154 87.65685424949237 175.65685424949243 87.65685424949237L171.65685424949243 87.65685424949237C170.55228474983085 87.65685424949237 169.65685424949243 86.76142374915395 169.65685424949243 85.65685424949237L169.65685424949243 81.65685424949237Z"/>
    <mask id="mask-18" maskUnits="userSpaceOnUse" maskContentUnits="userSpaceOnUse" x="0" y="0">
      <rect opacity="1" x="0" y="0" width="188" height="128.0000000000001" fill="black"/>
      <use xlink:href="#path-17" fill="white"/>
    </mask>
  </defs>
  <g opacity="1">
    <g/>
    <g mask="url(#mask-2)">
      <g opacity="1">
        <use xlink:href="#path-3" fill="black" filter="url(#filter-4)" stroke="black" stroke-opacity="0" stroke-width="0"/>
        <use xlink:href="#path-3" fill="rgb(227,244,255)" fill-opacity="1"/>
      </g>
      <g opacity="1">
        <ellipse fill="rgb(0,152,255)" fill-opacity="1" opacity="1" rx="23.958020989505293" ry="23.80743982494531" cx="99.21439280359849" cy="60.21881838074407"/>
      </g>
      <g opacity="1">
        <use xlink:href="#path-6" fill="black" filter="url(#filter-7)" stroke="black" stroke-opacity="0" stroke-width="0"/>
        <use xlink:href="#path-6" fill="rgb(250,253,255)" fill-opacity="1"/>
      </g>
      <g opacity="1">
        <g opacity="1">
          <ellipse fill="rgb(138,188,255)" fill-opacity="1" opacity="1" rx="1.7500099999999748" ry="1.7500049999999874" cx="99.12471037208684" cy="62.75000499999999"/>
        </g>
        <g opacity="1">
          <path fill="rgb(138,188,255)" fill-opacity="1" opacity="1" fill-rule="evenodd" d="M98.54470037208694 63.333339999999964L98.54470037208694 67.41668333333327C98.54470037208694 67.7388512783504 98.80586909373648 68.00001999999994 99.12803703875359 68.00001999999994L99.12803703875359 68.00001999999994C99.45020498377072 68.00001999999994 99.71137370542026 67.7388512783504 99.71137370542026 67.41668333333327L99.71137370542026 63.333339999999964L98.54470037208694 63.333339999999964Z"/>
        </g>
      </g>
      <g opacity="1">
        <path fill="rgb(236,248,255)" fill-opacity="1" opacity="1" fill-rule="evenodd" d="M95.31961292081222 56.526755520190974C95.31961292081222 54.46429281877862 97.31824996592606 52.809230157151404 99.06065149243557 52.809230157151404C100.80305301894506 52.809230157151404 102.8016900640589 54.489755321265186 102.8016900640589 56.526755520190974L102.8016900640589 56.603143027650695L105.33842169824185 56.603143027650695C105.33842169824185 52.55460513228569 102.54545454545456 50.4157549234136 99.11189859615644 50.4157549234136C95.6783426468583 50.4157549234136 92.88537549407101 52.55460513228569 92.88537549407101 56.603143027650695L95.31961292081222 56.603143027650695L95.31961292081222 56.526755520190974L95.31961292081222 56.526755520190974Z"/>
      </g>
      <g opacity="1">
        <ellipse fill="rgb(97,160,255)" fill-opacity="1" opacity="1" rx="4.356003816273754" ry="4.328625422717344" cx="45.533051655990334" cy="106.68788541873872"/>
      </g>
      <g opacity="1">
        <ellipse fill="rgb(97,160,255)" fill-opacity="1" opacity="1" rx="4.356003816273628" ry="4.328625422717317" cx="183.64399618372636" cy="4.328625422717317"/>
      </g>
      <g opacity="1">
        <path fill="rgb(97,139,255)" fill-opacity="1" opacity="1" fill-rule="evenodd" d="M178.09974587640554 126.85275104181027C177.36217330528441 127.82541863679732 175.9821988173804 128.00000000000014 175.0304922739983 127.20191376821587L163.75276973492055 117.7745201552643C162.824855855123 117.0013741182233 162.65830721003113 115.55484282311433 163.41967244473682 114.557235033384C164.15724501585794 113.58456743839695 165.53721950376195 113.40998607519413 166.48892604714405 114.2080723069784L177.7666485862218 123.63546591992997C178.69456246601936 124.43355215171422 178.86111111111123 125.8800834468232 178.09974587640554 126.85275104181027L178.09974587640554 126.85275104181027Z"/>
      </g>
      <g opacity="1">
        <path fill="rgb(97,139,255)" fill-opacity="1" opacity="1" fill-rule="evenodd" d="M19.358105333041152 27.81011190539145C18.620532761920032 28.782779500378517 17.24055827401601 28.957360863581332 16.288851730633915 28.15927463179706L5.011129191556152 18.731881018845485C4.083215311758619 17.95873498180448 3.9166666666667425 16.512203686695518 4.678031901372425 15.514595896965194C5.415604472493551 14.541928301978132 6.795578960397572 14.367346938775313 7.747285503779661 15.165433170559584L19.02500804285743 24.59282678351116C19.952921922654962 25.390913015295418 20.119470567746838 26.837444310404393 19.358105333041152 27.81011190539145L19.358105333041152 27.81011190539145Z"/>
      </g>
      <g opacity="1">
        <use xlink:href="#path-15" fill-opacity="0" stroke="rgb(187,241,255)" stroke-opacity="1" stroke-width="2" stroke-linecap="butt" stroke-linejoin="miter" mask="url(#mask-16)"/>
      </g>
      <g transform="translate(173.65685424949243, 83.65685424949237) rotate(45.00001609038752) translate(-173.65685424949243, -83.65685424949237)" opacity="1">
        <use xlink:href="#path-17" fill="rgb(255,255,255)" fill-opacity="1"/>
        <use xlink:href="#path-17" fill-opacity="0" stroke="rgb(187,241,255)" stroke-opacity="1" stroke-width="2" stroke-linecap="butt" stroke-linejoin="miter" mask="url(#mask-18)"/>
      </g>
    </g>
  </g>
</svg>

<svg xmlns="http://www.w3.org/2000/svg" xmlns:xlink="http://www.w3.org/1999/xlink" height="128" width="188"><defs><path id="a" d="M0 0H188V128H0z"/><mask id="d" maskUnits="userSpaceOnUse"><path d="M0 0H188V128H0z"/><use xlink:href="#a" fill="#fff"/></mask><path id="e" fill-rule="evenodd" d="M49.89 28.874v28.824c0 22.967 11.58 34.45 30.824 47.157l17.347 11.432a2.34 2.34 0 0 0 2.563 0l17.219-11.407c19.166-12.706 30.697-24.164 30.697-47.055v-28.95c0-8.352-6.816-15.125-15.22-15.125H65.11c-8.405 0-15.22 6.773-15.22 15.124z"/><filter id="f" filterUnits="userSpaceOnUse" x="-50%" y="-50%" width="200%" height="200%"><feOffset in="SourceAlpha" result="shadow-1-feOffset-shadow" dx="2" dy="2"/><feGaussianBlur in="shadow-1-feOffset-shadow" result="shadow-1-feGaussianBlur-shadow" stdDeviation="2"/><feColorMatrix in="shadow-1-feGaussianBlur-shadow" result="shadow-1-feColorMatrix-shadow" values="0 0 0 0 0.8705882352941177 0 0 0 0 0.8745098039215686 0 0 0 0 0.9176470588235294 0 0 0 0.5 0"/></filter><path id="g" fill-rule="evenodd" d="M106.286 72.059H91.963a1.335 1.335 0 0 1-1.332-1.324V57.902c0-.713.589-1.324 1.332-1.324h14.323c.718 0 1.333.585 1.333 1.324v12.833c-.026.738-.615 1.324-1.333 1.324z"/><filter id="h" filterUnits="userSpaceOnUse" x="-50%" y="-50%" width="200%" height="200%"><feOffset in="SourceAlpha" result="shadow-1-feOffset-shadow" dy="2"/><feGaussianBlur in="shadow-1-feOffset-shadow" result="shadow-1-feGaussianBlur-shadow" stdDeviation="2"/><feColorMatrix in="shadow-1-feGaussianBlur-shadow" result="shadow-1-feColorMatrix-shadow" values="0 0 0 0 0.4470588235294118 0 0 0 0 0.5529411764705883 0 0 0 0 1 0 0 0 0.5 0"/></filter><path id="b" fill-rule="evenodd" d="M8 62a2 2 0 0 1 2-2h4a2 2 0 0 1 2 2v4a2 2 0 0 1-2 2h-4a2 2 0 0 1-2-2v-4z"/><mask id="i" maskUnits="userSpaceOnUse" x="0" y="0"><path d="M0 0H188V128H0z"/><use xlink:href="#b" fill="#fff"/></mask><path id="c" fill-rule="evenodd" d="M169.657 81.657a2 2 0 0 1 2-2h4a2 2 0 0 1 2 2v4a2 2 0 0 1-2 2h-4a2 2 0 0 1-2-2v-4z"/><mask id="j" maskUnits="userSpaceOnUse" x="0" y="0"><path d="M0 0H188V128H0z"/><use xlink:href="#c" fill="#fff"/></mask></defs><g mask="url(#d)"><g><use xlink:href="#e" filter="url(#f)" stroke="#000" stroke-opacity="0" stroke-width="0"/><use xlink:href="#e" fill="#E3F4FF"/></g><ellipse fill="#0098FF" rx="23.958" ry="23.807" cx="99.214" cy="60.219"/><g><use xlink:href="#g" filter="url(#h)" stroke="#000" stroke-opacity="0" stroke-width="0"/><use xlink:href="#g" fill="#FAFDFF"/></g><g fill="#8ABCFF"><ellipse rx="1.75" ry="1.75" cx="99.125" cy="62.75"/><path fill-rule="evenodd" d="M98.545 63.333v4.084a.583.583 0 0 0 1.167 0v-4.084h-1.167z"/></g><path fill="#ECF8FF" fill-rule="evenodd" d="M95.32 56.527c0-2.063 1.998-3.718 3.74-3.718 1.743 0 3.742 1.68 3.742 3.718v.076h2.536c0-4.048-2.793-6.187-6.226-6.187-3.434 0-6.227 2.139-6.227 6.187h2.435v-.076z"/><ellipse fill="#61A0FF" rx="4.356" ry="4.329" cx="45.533" cy="106.688"/><ellipse fill="#61A0FF" rx="4.356" ry="4.329" cx="183.644" cy="4.329"/><path fill="#618BFF" fill-rule="evenodd" d="M178.1 126.853a2.118 2.118 0 0 1-3.07.349l-11.277-9.427c-.928-.774-1.095-2.22-.333-3.218a2.118 2.118 0 0 1 3.069-.349l11.278 9.427c.928.799 1.094 2.245.333 3.218zM19.358 27.81a2.118 2.118 0 0 1-3.07.35L5.012 18.731c-.928-.773-1.094-2.22-.333-3.217a2.118 2.118 0 0 1 3.07-.35l11.277 9.428c.928.798 1.094 2.244.333 3.217z"/><use xlink:href="#b" fill-opacity="0" stroke="#BBF1FF" stroke-width="2" mask="url(#i)"/><g transform="rotate(45 173.657 83.657)"><use xlink:href="#c" fill="#FFF"/><use xlink:href="#c" fill-opacity="0" stroke="#BBF1FF" stroke-width="2" mask="url(#j)"/></g></g></svg>
